X: 100407
T: SANDERSON'S HORNPIPE
C: Composed by W.B. Laybourn, 1885
R: hornpipe, reel
B: K\"ohler's Violin Repository, v.3, 1885 p.263 #3
F: http://www.archive.org/details/klersviolinrepos03rugg
Z: 2012 John Chambers <jc:trillian.mit.edu>
M: C|
L: 1/8
K: Gm
uD2 |\
G^FGA Bd^cd | Ac=Bc G_BAB | FcGc AcBc | Aced cBAD |
G^FGA Bd^cd | Ac=Bc G_BAB | FcGc Ace^c | dcBA G2 :|
|: (uga) |\
bgdB GBdg | bgdB G2(fg) | afcA FAcf | afcA F2^F2 |
GDGB AD^FA | GABc d2(ec) | dBcA BGA^F | G2B2 G2 :|

%%sep 2 1 500

